X:7
T:I Wonder Where You are Tonight
C:Hank Snow
N: Transcribed by Doug Edwards
R:bluegrass
L:1/8
Q:1/4=225
M:4/4
K:G
| (3"G"[gd][gd][gd] (3[gd][gd][gd] [g2d2] e2 | d2 B2 c2 B2 | "C"A4 (3[cG][cG][cG] (3[cG][cG][cG] | 
[c8G8] | "D"[d6F6] E2 | D2 d2 d2 c2 | (3"G"[BG][BG][BG] (3[BG][BG][BG] (3[BG][BG][BG] (3[BG][BG][BG] | 
[B8G8] | (3[gd][gd][gd] (3[gd][gd][gd] [g2d2] e2 | d2 B2 c2 B2 | "C"A4 (3[cG][cG][cG] (3[cG][cG][cG] | 
[c6G6] c2 | "D"[d6F6] e2 | d2 c2 A2 F2 | (3"G"[BG][BG][BG] (3[BG][BG][BG] (3[BG][BG][BG] (3[BG][BG][BG] | 
"G7"[B6G6] d2 | (3"C"ccc (3ccc (3ccc d2 | c2 c2 d2 e2 | "G"e4 (3[gd][gd][gd] (3[gd][gd][gd] | 
[g6d6] d2 | d6 d2 | d2 e2 d2 B2 | (3"D"[AF][AF][AF] (3[AF][AF][AF] (3[AF][AF][AF] (3[AF][AF][AF] | 
[A8F8] | (3"G"[gd][gd][gd] (3[gd][gd][gd] [g2d2] e2 | d2 B2 c2 B2 | "C"A4 (3[EC][EC][EC] (3[EC][EC][EC] | 
[E6C6] c2 | (3"D"[fd][fd][fd] (3[fd][fd][fd] [f2d2] e2 | d2 c2 A2 F2 | "G"G8 | 

